PortableApps/LibreOfficePortable/App/libreoffice/help/media/icon-themes/cmd/32/toolbarmode.svg

<svg viewBox="0 0 32 32" xmlns="http://www.w3.org/2000/svg"><path d="m4 4v3h22v-3zm0 5v17h14.585938l7.414062-7.414062v-9.585938z" fill="#fff"/><path d="m29 17-12 12h12zm-1 3v8h-8z" fill="#4d82b8"/><path d="m3 9v17c0 .554.446 1 1 1h13.585938l1-1h-14.585938v-17zm23 0v9.585938l1-1v-8.585938z" fill="#696969"/><path d="m3 3v5h24v-5zm1 1h22v3h-22z" fill="#4d82b8"/></svg>

<svg viewBox="0 0 32 32" xmlns="http://www.w3.org/2000/svg">
  <path
     style="fill:#ffffff"
     d="M 4 4 L 4 7 L 26 7 L 26 4 L 4 4 z M 4 9 L 4 26 L 18.585938 26 L 26 18.585938 L 26 9 L 4 9 z "
     />
  <path
     style="fill:#4d82b8"
     d="m 29,17 -12,12 12,0 z m -1,3 0,8 -8,0 z"
     />
  <path
     style="fill:#696969"
     d="M 3 9 L 3 26 C 3 26.554 3.446 27 4 27 L 17.585938 27 L 18.585938 26 L 4 26 L 4 9 L 3 9 z M 26 9 L 26 18.585938 L 27 17.585938 L 27 9 L 26 9 z "
     />
  <path
     style="fill:#4d82b8"
     d="M 3,3 3,8 27,8 27,3 Z M 4,4 26,4 26,7 4,7 Z"
     />
</svg>
